X:0258
T:Just as I was in the morning.
M:6/8
L:1/8
Q:3/8=120
I: :: ::
Z:Jack Campin * www.campin.me.uk * 2009
K:D
(f/e/)|d2D FED|EFE cBc|d2D F/G/AF|A3 d2:|
 A    |dfa afd|cea ecA|ded fed   |f3 a2b|
       afa geg|fdf ece|d2D FAF   |A3 d2:|

